src/static/images/3.svg

<svg width="108" height="98" viewBox="0 0 108 98" fill="none" xmlns="http://www.w3.org/2000/svg">
<path fill-rule="evenodd" clip-rule="evenodd" d="M24.397 63.4769C25.9892 63.8505 27.4968 63.6169 28.9246 62.7951C27.3577 62.6054 25.8935 63.1592 24.397 63.4769ZM37.0521 48.0322C37.1602 53.2271 35.5965 57.0506 33.4792 60.6409C31.9951 63.1576 29.5712 64.4167 26.6477 64.5658C24.158 64.693 21.7063 64.4992 19.3317 63.5962C17.5415 62.9161 16.3548 61.6018 15.3645 60.085C13.5234 57.2643 11.3612 54.548 11.2871 50.9614C11.1939 46.4831 12.1163 42.2706 15.0741 38.7346C16.3267 37.2377 17.8132 36.2328 19.9725 36.5696C22.1155 36.9038 22.9804 39.5137 22.9642 41.0773C22.9568 41.8009 22.3529 42.1654 21.9967 42.59C20.3742 44.5243 20.0433 46.9453 19.2783 49.2027C19.1205 49.6674 19.4406 49.7954 19.7968 49.8729C22.1081 50.3749 24.2068 50.227 25.7787 48.1196C26.6121 47.0029 27.5134 45.9442 28.0643 44.6424C28.3265 44.0235 28.3389 43.4561 28.1086 42.7971C27.8365 42.0159 27.2856 41.055 28.6587 40.6275C28.9395 40.5401 28.8819 40.3011 28.7506 40.0725C28.1745 39.0726 28.5071 38.0984 29.5923 37.5711C31.79 36.5029 35.2055 38.455 35.4176 40.8943C35.44 41.1506 35.4561 41.4485 35.5924 41.6473C37.1179 43.869 36.8189 46.4603 37.0521 48.0322Z" fill="white"/>
<path fill-rule="evenodd" clip-rule="evenodd" d="M67.25 48.5984C65.995 48.4025 64.7731 48.4916 63.6187 49.0325C64.8659 49.1891 66.1085 49.3283 67.25 48.5984ZM60.3287 23.6291C59.8035 24.0835 59.0737 23.8586 58.7635 24.5093C59.1731 24.8225 59.5496 24.3867 59.9067 24.4642C60.4045 24.5727 61.4259 24.3971 60.6183 25.4641C60.5586 25.5432 60.4194 25.6223 60.5884 25.7055C61.9872 26.3964 60.9401 27.2849 60.7201 28.0367C60.4915 28.8224 60.1399 29.575 60.1212 30.408C60.0955 31.5731 60.0839 32.7387 60.0997 33.903C60.1187 35.3324 60.3407 35.5159 61.7577 35.3813C64.2019 35.1489 65.9171 33.3873 65.8579 30.9381C65.809 28.9301 66.2079 27.0086 66.6602 25.0921C66.8934 24.1046 67.513 23.3131 68.6103 23.1246C69.9022 22.9022 71.7764 23.6971 72.2577 24.844C73.0679 26.7742 73.7977 28.769 74.0848 30.8425C74.651 34.936 74.5346 39.0192 73.3872 43.032C72.9391 44.5989 72.3277 46.1261 71.3813 47.4192C70.1366 49.1195 68.2673 49.8845 66.1822 50.1024C63.5479 50.3774 61.0097 50.2917 58.8074 48.4945C58.3248 48.1006 58.0204 47.5861 57.6919 47.1317C55.529 44.1383 52.9377 41.3263 52.4249 37.4684C51.8343 33.0257 52.5185 28.7644 54.8074 24.8506C55.6014 23.4925 56.6879 22.4727 58.4462 22.6711C59.164 22.7523 59.8325 22.9652 60.3287 23.6291Z" fill="white"/>
<path fill-rule="evenodd" clip-rule="evenodd" d="M51.127 84.2328C52.3087 84.8329 54.3201 84.7679 55.2773 84.1425C53.898 84.0658 52.5817 83.966 51.127 84.2328ZM64.0277 71.6775C64.1416 75.4931 63.0452 79.3224 60.4813 82.6882C59.4156 84.087 57.9651 84.963 56.2681 85.342C53.3529 85.9927 50.5165 85.7197 47.8022 84.4076C46.2233 83.6446 45.2151 82.3448 44.1842 80.9718C42.2685 78.4199 41.3225 75.4708 40.5268 72.4897C39.6164 69.0796 40.2596 65.7921 41.8315 62.6206C42.3716 61.5304 42.7415 60.4332 43.8623 59.7804C44.7156 59.2834 45.5295 59.4987 46.3488 59.7974C46.5451 59.869 46.8508 60.1026 46.8347 60.2261C46.606 61.974 48.0955 63.4341 47.6428 65.2168C47.4676 65.9073 47.3719 66.6193 47.2617 67.3247C46.9556 69.2842 48.0222 70.7302 50.0348 70.9489C51.9948 71.1618 53.7145 70.5637 54.9232 68.9595C55.9193 67.6382 56.6338 66.1458 57.0157 64.5168C57.3326 63.1648 58.3992 62.4375 59.7776 62.6438C62.0677 62.9863 62.6368 63.6002 62.8829 65.9868C62.8978 66.1351 62.8903 66.3202 62.9748 66.4205C64.1814 67.8648 63.8119 69.6318 64.0277 71.6775Z" fill="white"/>
<path fill-rule="evenodd" clip-rule="evenodd" d="M95.5633 31.107C96.3494 31.3004 97.1339 31.6161 97.8588 31.0308C97.0838 30.9529 96.3097 30.7549 95.5633 31.107ZM93.9802 14.08C95.6685 14.6056 94.3302 15.5972 94.3364 16.3515C94.3393 16.7218 93.911 17.1406 94.3157 17.5328C94.71 17.9147 95.2087 17.8861 95.6908 17.6927C97.843 16.8299 99.0069 15.0919 99.4613 12.9575C99.7948 11.3894 100.344 9.89079 100.678 8.32759C100.977 6.92511 102.408 6.18245 103.819 6.5018C105.505 6.88327 106.559 7.80322 106.793 9.5789C107.07 11.6897 107.666 13.7279 107.603 15.9199C107.456 21.0175 106.013 25.5956 102.849 29.6105C99.8966 33.3553 94.2382 33.5181 91.1997 29.8168C90.2143 28.616 89.301 27.2384 89.1224 25.5654C89.093 25.2895 88.9083 25.0166 88.7526 24.7689C86.1563 20.6501 86.4243 16.4016 88.3483 12.178C89.6655 9.28771 91.9299 9.4273 93.771 10.8041C94.0013 10.9764 94.3194 11.1819 94.2664 11.5111C94.1985 11.934 93.7756 11.724 93.5171 11.8119C93.2715 11.8955 92.9314 11.9063 92.9737 12.255C93.0172 12.6195 93.363 12.511 93.6116 12.5371C94.0635 12.5843 94.5381 12.6142 94.7121 13.1468C94.8993 13.7209 94.2478 13.7226 93.9802 14.08Z" fill="white"/>
<path fill-rule="evenodd" clip-rule="evenodd" d="M15.2577 90.267C15.0108 90.6319 15.1665 90.9558 15.5343 90.9923C16.1122 91.049 15.7539 90.6195 15.7733 90.3747C15.8011 90.0255 15.9643 90.2471 16.1378 90.2794C16.5193 90.3507 16.4883 89.9957 16.3321 89.8934C16.0728 89.7228 15.7141 89.5828 15.4188 89.6171C15.0709 89.6569 15.1653 89.9994 15.2577 90.267ZM13.8084 94.8373C12.9261 94.5644 11.92 95.6251 11.3807 94.2454C11.3783 94.8419 11.0283 95.7249 11.7216 95.6897C12.3549 95.6574 13.3076 95.7121 13.8084 94.8373ZM19.1242 91.6235C19.7783 92.0129 19.9083 91.2073 20.5992 91.2412C19.6635 91.9706 19.1271 92.7663 18.763 93.7662C18.5224 94.4268 17.5196 94.8294 16.8801 95.1426C14.614 96.2522 12.1723 96.9912 9.61458 97.0632C8.84044 97.0852 8.09322 96.5997 7.28015 96.5438C7.02831 96.5268 6.79139 96.3218 6.8092 96.0054C6.81334 95.9262 6.95293 95.7817 7.0105 95.7908C7.47813 95.8658 7.80618 95.8268 7.57547 95.2242C7.47234 94.9549 7.51003 94.5822 7.15133 94.4815C6.52133 94.3046 7.01589 95.1989 6.53086 95.1575C6.06778 95.5501 6.67251 93.6196 5.83293 94.8547C5.77991 94.8129 5.7008 94.781 5.67802 94.7263C5.17932 93.5239 4.00961 92.8545 3.35932 91.7283C2.73967 90.6555 1.94399 89.6851 1.47636 88.5062C0.0701466 84.9661 -0.37512 81.3219 0.329437 77.5759C0.69559 75.6275 1.9324 74.8339 3.71677 75.1806C4.32772 75.299 4.80032 75.6047 5.04346 76.1258C5.96257 78.0965 7.34932 79.9315 6.62902 82.3645C6.40618 83.1171 6.83364 83.9215 7.3692 84.5365C7.70015 84.9164 8.10441 85.1425 8.66358 84.8571C9.73305 84.3112 10.7959 83.7885 11.5522 82.7903C12.0923 82.0774 12.736 81.4429 13.3113 80.7553C14.1058 79.8055 14.3228 78.5998 14.4114 77.4583C14.5469 75.7178 15.6677 74.9018 17.2926 75.6354C17.9533 75.9336 18.5965 76.3788 18.8749 77.0304C19.6117 78.7526 20.4493 80.4082 20.8469 82.3057C21.2354 84.1592 21.346 85.9593 21.2516 87.8116C21.2106 88.6177 20.6932 89.3193 20.7649 90.163C20.7781 90.3192 20.4165 90.6419 20.2111 90.6572C19.5459 90.7069 19.5049 91.2988 19.1242 91.6235Z" fill="white"/>
<path fill-rule="evenodd" clip-rule="evenodd" d="M85.3424 57.6243C84.6581 58.3297 84.456 58.3977 84.2257 57.9487C83.9138 57.3406 83.0233 57.1335 82.5635 57.5742C82.2814 57.8443 82.2864 58.1963 82.5308 58.4482C82.9106 58.84 85.1336 58.2063 85.3424 57.6243ZM87.1189 66.0703C86.689 65.6648 85.9807 65.9494 85.7599 65.6714C84.9907 64.7026 84.4738 65.8951 83.8252 65.8201C83.7113 65.8069 83.2755 66.2277 83.4006 66.5205C83.5282 66.8184 84.0824 67.0491 84.2435 66.9111C85.0715 66.2012 86.1965 66.6212 87.1189 66.0703ZM84.7153 61.4955C84.258 61.4892 83.7254 61.5037 83.6516 62.1284C83.5646 62.8636 84.2419 62.5318 84.5769 62.6917C84.9928 62.8909 85.3623 62.4978 85.7069 62.6175C86.083 62.7476 86.3112 62.6378 86.4475 62.3607C86.6455 61.9581 86.2748 61.6678 86.1091 61.3658C85.9335 61.0473 85.641 61.2855 85.4294 61.3977C85.2123 61.5133 85.0516 61.7953 84.7153 61.4955ZM93.8534 49.8316C94.4412 50.0809 94.9365 50.3874 95.0272 50.983C95.0977 51.4457 94.558 51.2084 94.2974 51.5103C95.5425 51.5393 95.2956 52.6336 95.1639 53.088C94.816 54.285 95.2571 55.4295 95.1171 56.5992C95.0248 57.3679 94.8479 58.1462 94.7841 58.9237C94.7183 59.7301 94.1781 58.6188 93.759 58.6772C93.539 58.9171 93.5552 59.1689 93.8368 59.3118C94.1259 59.4588 94.6391 59.429 94.5985 59.8366C94.5493 60.3316 94.4059 61.0908 94.0833 61.2316C93.2139 61.611 93.4152 62.4734 93.4686 62.8727C93.5838 63.7342 93.1907 63.6286 92.733 63.4994C92.0711 63.3117 91.6739 63.523 91.5409 64.165C91.3715 64.9843 90.4507 64.8492 90.0394 65.4262C89.636 65.9916 89.0043 66.3913 89.0594 67.2371C87.9225 67.1008 88.4481 66.0993 87.997 65.4913C87.8363 67.4774 86.3688 67.443 85.0396 67.5908C84.5981 67.6405 84.0977 67.4707 83.71 67.6215C82.8965 67.9371 82.9558 67.5436 83.1616 66.8018C82.7081 67.6857 82.2893 67.9868 81.651 67.252C81.4195 66.9857 81.0364 67.0263 80.7083 66.953C80.1044 66.8175 80.0307 66.6767 80.0468 65.8992C80.0514 65.6801 79.9126 65.7025 79.778 65.6408C78.3925 65.0062 77.7907 63.8461 77.7803 62.3263C77.7754 61.6027 78.0711 60.4492 76.6429 60.5246C76.4462 60.5345 76.4068 60.385 76.3435 60.2504C75.0321 57.4599 75.4591 54.7767 76.9341 52.2095C77.6151 51.0249 79.3576 50.4355 80.6822 50.901C81.1155 51.0534 81.5806 51.466 81.7645 51.8785C81.9476 52.2882 81.487 52.4518 81.067 52.5056C80.7402 52.5475 80.8413 52.8279 80.9109 53.0429C81.0277 53.4028 81.2708 53.496 81.6146 53.3688C82.4513 53.0586 82.6397 53.1974 82.5416 54.189C82.4699 54.9155 83.505 55.2046 84.0845 55.5981C84.4771 55.8648 84.6863 55.2932 84.8019 54.9648C84.8859 54.7278 85.0156 54.5506 85.2053 54.454C87.0381 53.515 87.2398 51.7174 87.524 49.9927C87.6574 49.1837 87.6777 48.3119 87.8342 47.5468C87.9929 46.771 88.2385 45.9579 88.441 45.1581C88.7662 43.8762 89.822 43.8352 90.8339 43.8923C91.4879 43.9292 92.1353 44.1545 92.774 44.3376C92.9285 44.3819 93.16 44.6056 93.1459 44.7216C93.0233 45.7301 94.2046 46.4504 93.7204 47.5829C93.5983 47.8687 93.9897 48.4386 94.2448 48.8093C94.7303 49.5126 94.7485 49.535 93.8534 49.8316Z" fill="white"/>
<path fill-rule="evenodd" clip-rule="evenodd" d="M44.7469 28.8495C43.8303 29.2641 43.1849 29.7334 42.8002 30.5018C43.4289 30.0143 44.481 30.0143 44.7469 28.8495ZM41.1707 15.2252C42.0231 15.0666 42.4394 14.5596 42.9178 14.1702C43.8452 13.4147 44.6032 13.6558 44.8778 14.8715C44.9971 15.3988 45.0265 15.6924 45.7435 15.8386C46.4509 15.9832 46.6091 16.9938 46.9302 17.6512C47.9197 19.6791 48.2999 21.8582 48.1715 24.0982C48.0005 27.0863 46.5139 29.3275 44.0693 30.9938C42.9489 31.7576 41.797 32.2074 40.3845 32.0414C39.7123 31.9622 39.325 31.5331 38.8068 31.2755C37.0249 30.3908 35.1847 29.6245 33.5212 28.4983C31.7315 27.2872 29.6484 22.7512 30.5212 20.3464C31.0803 18.8051 32.0235 17.8761 33.59 17.5501C34.4909 17.3625 34.903 17.7365 34.9689 18.8387C35.4535 18.4982 35.6879 18.1027 35.8217 17.5729C36.1357 16.3324 36.5971 15.1457 37.1803 13.9983C37.872 12.636 39.021 11.9708 40.4355 11.6374C40.9909 11.5065 41.5447 11.5757 41.8823 12.0193C42.2103 12.4501 42.1822 12.9707 41.8844 13.4918C41.6093 13.9727 41.4532 14.5215 41.1707 15.2252Z" fill="white"/>
<path fill-rule="evenodd" clip-rule="evenodd" d="M67.0715 5.34097C67.7715 3.75375 68.0888 2.11517 69.3243 0.95789C69.5136 0.780612 69.6785 0.549487 69.9021 0.441381C70.4344 0.184162 71.1104 -0.233353 71.571 0.163866C71.9702 0.508482 71.9044 1.23665 71.7014 1.82895C71.6033 2.11351 71.2396 2.5041 71.6567 2.7141C72.0096 2.89097 72.2113 2.4341 72.4366 2.19925C72.5667 2.06339 72.6636 1.89481 72.7999 1.76765C73.0542 1.53032 73.1772 1.01629 73.656 1.206C74.0384 1.35677 74.3755 1.63221 74.4318 2.1015C74.484 2.53682 74.4803 2.94191 75.1575 2.647C75.5021 2.49706 75.7436 2.9444 75.9304 3.19706C77.9944 5.98795 78.4218 8.87535 75.7391 11.7197C74.9185 12.5891 74.0756 13.4369 73.2443 14.296C72.7875 14.7682 72.2324 14.762 71.6782 14.5652C71.0528 14.3432 71.7271 13.8358 71.4479 13.4295C70.8117 14.4522 70.1995 14.3163 69.3856 13.5786C68.8811 13.1217 68.2764 12.5506 67.3271 12.9329C66.9775 13.0737 66.3123 12.6852 65.9043 12.3849C63.8594 10.8801 62.6284 8.88819 62.5799 6.29611C62.5604 5.26807 62.898 4.35641 63.9376 3.89333C64.1369 3.80469 64.5391 3.7028 64.5544 3.73718C65.0311 4.80955 66.4208 4.38126 67.0715 5.34097Z" fill="white"/>
</svg>

<svg width="108" height="98" fill="none" xmlns="http://www.w3.org/2000/svg"><path fill-rule="evenodd" clip-rule="evenodd" d="M24.397 63.477c1.592.373 3.1.14 4.528-.682-1.567-.19-3.032.364-4.528.682zm12.655-15.445c.108 5.195-1.456 9.019-3.573 12.609-1.484 2.517-3.908 3.776-6.831 3.925-2.49.127-4.942-.067-7.316-.97-1.79-.68-2.977-1.994-3.968-3.511-1.84-2.82-4.003-5.537-4.077-9.124-.093-4.478.83-8.69 3.787-12.226 1.253-1.497 2.74-2.502 4.899-2.165 2.143.334 3.007 2.944 2.991 4.507-.007.724-.611 1.088-.967 1.513-1.623 1.934-1.954 4.355-2.719 6.613-.157.464.163.592.519.67 2.311.502 4.41.354 5.982-1.753.833-1.117 1.734-2.176 2.285-3.478.262-.619.275-1.186.045-1.845-.273-.781-.823-1.742.55-2.17.28-.087.223-.326.092-.555-.577-1-.244-1.974.841-2.5 2.198-1.07 5.614.883 5.826 3.322.022.257.038.555.174.753 1.526 2.222 1.227 4.813 1.46 6.385zM67.25 48.598c-1.255-.195-2.477-.106-3.631.434 1.247.157 2.49.296 3.631-.434zM60.329 23.63c-.526.454-1.255.23-1.566.88.41.314.787-.122 1.144-.045.498.109 1.519-.067.711 1-.06.08-.199.158-.03.242 1.4.69.352 1.579.132 2.33-.228.786-.58 1.539-.599 2.372a98.138 98.138 0 00-.021 3.495c.019 1.43.24 1.613 1.658 1.478 2.444-.232 4.16-1.994 4.1-4.443-.049-2.008.35-3.93.802-5.846.233-.987.853-1.779 1.95-1.967 1.292-.223 3.166.572 3.648 1.719.81 1.93 1.54 3.925 1.827 5.998.566 4.094.45 8.177-.698 12.19-.448 1.567-1.06 3.094-2.006 4.387-1.244 1.7-3.114 2.466-5.199 2.683-2.634.275-5.172.19-7.375-1.607-.482-.394-.787-.909-1.115-1.363-2.163-2.994-4.754-5.806-5.267-9.664-.59-4.442.094-8.704 2.382-12.617.794-1.358 1.88-2.378 3.64-2.18.717.081 1.386.294 1.882.958zM51.127 84.233c1.182.6 3.193.535 4.15-.09-1.379-.077-2.695-.177-4.15.09zm12.9-12.556c.115 3.816-.982 7.645-3.546 11.011-1.065 1.399-2.516 2.275-4.213 2.654-2.915.65-5.752.378-8.466-.934-1.579-.763-2.587-2.063-3.618-3.436-1.915-2.552-2.861-5.501-3.657-8.482-.91-3.41-.267-6.698 1.304-9.87.54-1.09.91-2.187 2.031-2.84.854-.497 1.667-.281 2.487.017.196.072.502.306.486.43-.229 1.747 1.26 3.207.808 4.99-.175.69-.271 1.402-.381 2.108-.306 1.96.76 3.405 2.773 3.624 1.96.213 3.68-.385 4.888-1.99a11.834 11.834 0 002.093-4.442c.317-1.352 1.383-2.08 2.762-1.873 2.29.342 2.859.956 3.105 3.343.015.148.007.333.092.434 1.206 1.444.837 3.21 1.053 5.256zM95.563 31.107c.786.193 1.57.51 2.296-.076-.775-.078-1.55-.276-2.296.076zM93.98 14.08c1.688.526.35 1.517.356 2.272.003.37-.425.789-.02 1.18.394.383.893.354 1.375.16 2.152-.862 3.316-2.6 3.77-4.735.334-1.568.883-3.066 1.217-4.63.299-1.402 1.73-2.145 3.141-1.825 1.686.381 2.74 1.301 2.974 3.077.277 2.11.873 4.149.81 6.34-.147 5.098-1.59 9.677-4.754 13.691-2.952 3.745-8.61 3.908-11.65.207-.985-1.201-1.898-2.579-2.077-4.252-.029-.276-.214-.548-.37-.796-2.596-4.119-2.328-8.367-.404-12.591 1.317-2.89 3.582-2.75 5.423-1.374.23.172.548.378.495.707-.068.423-.49.213-.749.3-.245.085-.586.095-.543.444.043.364.389.256.638.282.452.047.926.077 1.1.61.187.574-.464.576-.732.933zM15.258 90.267c-.247.365-.091.689.276.725.578.057.22-.373.24-.617.027-.35.19-.128.364-.096.381.072.35-.283.194-.386-.26-.17-.618-.31-.913-.276-.348.04-.254.382-.161.65zm-1.45 4.57c-.882-.273-1.888.788-2.427-.592-.003.597-.353 1.48.34 1.445.634-.033 1.587.022 2.087-.853zm5.316-3.213c.654.389.784-.417 1.475-.383-.936.73-1.472 1.525-1.836 2.525-.24.66-1.243 1.063-1.883 1.377-2.266 1.11-4.708 1.848-7.265 1.92-.775.022-1.522-.463-2.335-.52a.5.5 0 01-.47-.538c.003-.079.143-.223.2-.214.468.075.796.036.565-.567-.103-.27-.065-.642-.424-.743-.63-.176-.135.718-.62.677-.463.392.142-1.538-.698-.303-.053-.042-.132-.074-.155-.129-.499-1.202-1.668-1.871-2.319-2.998-.62-1.072-1.415-2.043-1.883-3.222C.07 84.966-.375 81.322.33 77.576c.367-1.948 1.603-2.742 3.388-2.395.61.118 1.083.424 1.326.945.92 1.97 2.306 3.805 1.586 6.239-.223.752.205 1.556.74 2.172.331.38.735.605 1.295.32 1.07-.546 2.132-1.069 2.888-2.067.54-.713 1.184-1.347 1.76-2.035.794-.95 1.01-2.155 1.1-3.297.135-1.74 1.256-2.556 2.88-1.823.661.299 1.304.744 1.583 1.395.737 1.723 1.574 3.378 1.972 5.276.388 1.853.499 3.653.405 5.506-.041.806-.559 1.507-.487 2.351.013.156-.349.479-.554.494-.665.05-.706.642-1.087.967zM85.342 57.624c-.684.706-.886.774-1.116.325-.312-.608-1.203-.816-1.662-.375-.283.27-.278.622-.033.874.38.392 2.603-.242 2.811-.824zm1.777 8.446c-.43-.405-1.138-.12-1.36-.399-.768-.968-1.285.224-1.934.15-.114-.014-.55.407-.424.7.127.297.681.528.843.39.828-.71 1.953-.29 2.875-.84zm-2.404-4.574c-.457-.007-.99.008-1.063.632-.087.736.59.404.925.564.416.199.785-.194 1.13-.075.376.13.604.02.74-.256.198-.403-.172-.693-.338-.995-.175-.319-.468-.08-.68.032-.217.115-.377.397-.714.097zm9.138-11.664c.588.249 1.084.555 1.174 1.151.07.463-.469.225-.73.527 1.246.03.999 1.124.867 1.578-.348 1.197.093 2.341-.047 3.511-.092.769-.27 1.547-.333 2.325-.066.806-.606-.305-1.025-.247-.22.24-.204.492.078.635.289.147.802.117.761.525-.049.495-.192 1.254-.515 1.395-.87.379-.668 1.241-.614 1.64.115.862-.278.757-.736.627-.662-.187-1.06.024-1.192.666-.17.82-1.09.684-1.502 1.261-.403.566-1.035.965-.98 1.811-1.136-.136-.61-1.138-1.062-1.746-.16 1.986-1.628 1.952-2.957 2.1-.442.05-.942-.12-1.33.03-.813.316-.754-.077-.548-.82-.454.885-.873 1.186-1.511.451-.231-.266-.615-.226-.943-.299-.604-.136-.677-.276-.661-1.054.004-.219-.134-.197-.269-.258-1.386-.635-1.987-1.795-1.998-3.315-.005-.723.291-1.877-1.137-1.801-.197.01-.236-.14-.3-.275-1.31-2.79-.884-5.473.591-8.04.681-1.185 2.424-1.775 3.748-1.309.433.152.899.565 1.082.977.184.41-.277.574-.697.628-.327.041-.226.322-.156.537.117.36.36.453.704.326.836-.31 1.025-.172.927.82-.072.727.963 1.016 1.543 1.41.392.266.601-.306.717-.634.084-.237.214-.414.403-.511 1.833-.939 2.035-2.737 2.319-4.461.133-.81.154-1.681.31-2.446.159-.776.404-1.59.607-2.389.325-1.282 1.381-1.323 2.393-1.266.654.037 1.301.262 1.94.446.154.044.386.268.372.384-.123 1.008 1.059 1.728.574 2.86-.122.287.27.857.525 1.227.485.704.504.726-.392 1.023zM44.747 28.85c-.917.414-1.562.883-1.947 1.652.629-.488 1.681-.488 1.947-1.652zM41.17 15.224c.852-.158 1.268-.665 1.747-1.055.927-.755 1.685-.514 1.96.701.12.528.148.821.865.968.708.144.866 1.155 1.187 1.812.99 2.028 1.37 4.207 1.242 6.447-.171 2.988-1.658 5.23-4.103 6.896-1.12.764-2.272 1.213-3.684 1.047-.673-.079-1.06-.508-1.578-.765-1.782-.885-3.622-1.651-5.286-2.778-1.79-1.21-3.873-5.747-3-8.152.56-1.54 1.502-2.47 3.069-2.796.9-.188 1.313.186 1.379 1.289.484-.34.719-.736.853-1.266.314-1.24.775-2.427 1.358-3.575.692-1.362 1.841-2.027 3.255-2.36.556-.131 1.11-.062 1.447.381.328.431.3.952.002 1.473-.275.48-.43 1.03-.713 1.733zM67.072 5.341c.7-1.587 1.017-3.226 2.252-4.383.19-.177.355-.409.578-.517.532-.257 1.208-.674 1.669-.277.4.344.333 1.073.13 1.665-.098.285-.461.675-.044.885.353.177.554-.28.78-.515.13-.136.227-.304.363-.431.254-.238.377-.752.856-.562.382.15.72.426.776.896.052.435.048.84.725.545.345-.15.587.297.773.55 2.064 2.79 2.492 5.678-.19 8.523-.822.87-1.664 1.717-2.496 2.576-.457.472-1.012.466-1.566.27-.625-.223.05-.73-.23-1.136-.636 1.022-1.248.886-2.062.149-.505-.457-1.11-1.028-2.059-.646-.35.14-1.015-.248-1.423-.548-2.045-1.505-3.276-3.497-3.324-6.089-.02-1.028.318-1.94 1.358-2.403.199-.088.601-.19.616-.156.477 1.073 1.867.644 2.517 1.604z" fill="#fff"/></svg>
